!!!!SEGMENT: pl-sa--168-a-iv-18--006_luna-georgius--missa-agnus-dei.krn
!!!cenid: 17xx:519
!!!COM: Luna, Georgius
!!!COM-rismID:
!!!CDT:
!!!CNT:
!!!OPR: Missa
!!!OTL: Agnus Dei
!!!OMV: 006
!!!PDT:
!!!AGN: Sacred; Mass
!!!SMS-siglum: PL-SA
!!!SMS-shelfmark: 168/A IV 18
!!!SMS-shelfwork: 001-006 M
!!!SMS-variant:
!!!SMS-altvar:
!!!NIFC-rismSourceID: 1001070167
!!!NIFC-islandoraID:
!!!URL-pdf-islandora:
!!!URL-scan: https://bc.bdsandomierz.pl/dlibra/publication/1554/edition/1522/content @EN{Scan on Cyfrowa Biblioteka Diecezjalna w Sandomierzu} @PL{Skany w portalu Cyfrowa Biblioteka Diecezjalna w Sandomierzu}
!!!ONB-nifc: UWAGA: części Mszy: Kirie, Gloria, Credo, Sanctus, Benedictus, Agnuſ Dei
!!!AIN: 2 empty 1 tenor 2 violn 1 vox
!!!key:
**kern	**kern	**kern	**kern	**text	**kern	**text	**kern	**text
*part6	*part5	*part4	*part3	*part3	*part2	*part2	*part1	*part1
*staff6	*staff5	*staff4	*staff3	*staff3	*staff2	*staff2	*staff1	*staff1
*group3	*group2	*group2	*group1	*	*group1	*	*group1	*
*Iempty	*Ivioln	*Ivioln	*Iempty	*	*Itenor	*	*Ivox	*
*I"[Fundamento]	*I"Violino Secundo	*I"Violino Primo	*I"Baſso	*	*I"Tenore.	*	*I"Canto	*
*clefF4	*clefG2	*clefG2	*clefF4	*	*clefC4	*	*clefC1	*
*Trd0c0	*	*	*	*	*	*	*	*
*k[f#]	*k[f#]	*k[f#]	*k[f#]	*	*k[f#]	*	*k[f#]	*
*G:	*G:	*G:	*G:	*	*G:	*	*G:	*
*M4/4	*M4/4	*M4/4	*M4/4	*	*M4/4	*	*M4/4	*
*met(c)	*met(c)	*met(c)	*met(c)	*	*met(c)	*	*met(c)	*
=1	=1	=1	=1	=1	=1	=1	=1	=1
!LO:TX:a:B:t=Adagio	!LO:TX:a:B:t=adagio	!LO:TX:a:B:t=Adagio	!LO:TX:a:B:t=adagio	!	!LO:TX:a:B:t=Adagio	!	!LO:TX:a:B:t=adagio	!
[>1GG	2B/	8.d/L	0r	.	0r	.	0r	.
.	.	16g/K	.	.	.	.	.	.
.	.	8.g/	.	.	.	.	.	.
.	.	16d/Jk	.	.	.	.	.	.
.	8.c/L	8.e/L	.	.	.	.	.	.
.	16e/K	16cc/K	.	.	.	.	.	.
.	8.e/	8.cc/	.	.	.	.	.	.
.	16c/Jk	16e/Jk	.	.	.	.	.	.
=2	=2	=2	=2	=2	=2	=2	=2	=2
*2\right	*	*	*	*	*	*	*	*
2GG/]	8.B/L	8.d/L	.	.	.	.	.	.
.	16d/K	16b/K	.	.	.	.	.	.
.	8.d/	8.b/	.	.	.	.	.	.
.	16B/Jk	16d/Jk	.	.	.	.	.	.
.	.	8qqd/	.	.	.	.	.	.
2D\	8.A/L	8.c/L	.	.	.	.	.	.
.	16c/K	16a/K	.	.	.	.	.	.
.	8.c/	8.a/	.	.	.	.	.	.
.	16B/Jk	16c/Jk	.	.	.	.	.	.
=3	=3	=3	=3	=3	=3	=3	=3	=3
[>1GG	4G/	8.B/L	4G\	A-	4d\	A-	4b\	A-
.	.	16g/K	.	.	.	.	.	.
.	4B/	8.g/	4G\	-gnuſ	4d\	-gnuſ	4b\	-gnuſ
.	.	16B/Jk	.	.	.	.	.	.
.	8.c/L	8.e/L	4G\	a-	4e\	a-	4cc\	a-
.	16e/K	16cc/K	.	.	.	.	.	.
.	8.e/	8.cc/	4G\	-gnuſ	4e\	-gnuſ	4cc\	-gnuſ
.	16c/Jk	16e/Jk	.	.	.	.	.	.
=4	=4	=4	=4	=4	=4	=4	=4	=4
*	*	*	*2\right	*	*	*	*2\right	*
2GG/]	8.B/L	8.c/L	4G\	a-	4d\	a-	4b\	a-
.	16d/K	16b/K	.	.	.	.	.	.
.	8.d/	8.b/	4G\	-gnuſ	4d\	-gnuſ	4b\	-gnuſ
.	16B/Jk	16c/Jk	.	.	.	.	.	.
.	.	.	.	.	8qqd/	.	8qqb/	.
2D\	8.A/L	8.c/L	2D\	De-	2c\	De-	2a\	De-
.	16c/K	16a/K	.	.	.	.	.	.
.	8.c/	8.a/	.	.	.	.	.	.
.	16A/Jk	16c/Jk	.	.	.	.	.	.
=5	=5	=5	=5	=5	=5	=5	=5	=5
8.GG/L	8.G/L	8.B/L	8.GG/	-i	8.B\	-i	8.g\	-i
16E/Jk	16e/Jk	16d/Jk	16D\	qui	16D/	qui	16d/	qui
8.G\L	8.g/L	8.g/L	8.G\L	tol-	8.G\L	tol-	8.g\L	tol-
16B\Jk	16b/Jk	16b/Jk	16B\Jk	.	16B\Jk	.	16b\Jk	.
8.d\L	8.dd\L	8.dd\L	8.d\L	.	8.d\L	.	8.dd\L	.
16B\K	16b\K	16b\Jk	16B\K	.	16B\K	.	16b\K	.
8.G\	8.g\	8.g/L	8.G\	.	8.G\	.	8.g\	.
16D\Jk	16d\Jk	16e/Jk	16D\Jk	.	16D\Jk	.	16d\Jk	.
=6	=6	=6	=6	=6	=6	=6	=6	=6
8.G\L	8.g/L	8.g/L	8.G\	-liſ	8.G/	-liſ	8.g\	-lis
16D\K	16d/K	16d/K	16D\	pec-	16D/	pec-	16d/	pec-
8.G\	8.g/	8.g/	8.G\	-ca-	8.G\	-ca-	8.g\	-ca-
16B\Jk	16b/Jk	16b/Jk	16B\	-ta	16B\	-ta	16b\	-ta
!	!	!LO:LB:g=original	!	!	!	!	!	!
8.d\L	8.dd\L	8.dd\L	8.d\L	mun-	8.d\L	mun-	8.dd\L	mun-
16B\K	16b\K	16b\Jk	16B\K	.	16B\K	.	16b\Jk	.
8.G\	8.g\	8.g/L	8.G\	.	8.G\	.	8.g/L	.
16D\Jk	16d\Jk	16e/Jk	16E\Jk	.	16D\Jk	.	16d/Jk	.
!	!LO:LB:g=original	!	!	!	!	!	!	!
=7	=7	=7	=7	=7	=7	=7	=7	=7
4G\	4g/	4g/	4G\	-di	4G\	-di	4g\	-di
4G\	4dd\	8.bb\L	8G\	mi-	8B\	mi-	8gg\	mi-
.	.	.	8G\	-se-	8B\	-se-	8gg\	-se-
.	.	16gg\Jk	.	.	.	.	.	.
!	!	!	!	!	!LO:LB:g=original	!	!	!
4D\	8.ff#\L	8.aa\L	4D\	-re-	4A\	-re-	4ff#\	-re-
.	16aa\K	16ddd\K	.	.	.	.	.	.
4D\	8.ff#\	8.aa\	4D\	-re	4A\	-re	4ff#\	-re
.	16dd\Jk	16ff#\Jk	.	.	.	.	.	.
!	!	!	!LO:LB:g=original	!	!	!	!LO:LB:g=original	!
=8	=8	=8	=8	=8	=8	=8	=8	=8
*	*	*	*	*	*2\right	*	*2\right	*
4A\	8.ee\L	8.gg\L	2A\	no-	2e\	no-	2gg\	no-
.	16cc#X\K	16ee\K	.	.	.	.	.	.
4AA/	8.a\	8.cc#X\	.	.	.	.	.	.
.	16ee\Jk	16gg\Jk	.	.	.	.	.	.
4D\	4dd\	8.ff#\L	4D\	-biſ	4d\	-biſ	4ff#\	-biſ
.	.	16aa\K	.	.	.	.	.	.
4D\	4ff#\	8.ddd\	8D\	mi-	8d\	mi-	8ff#\	mi-
.	.	.	8D\	-se-	8d\	-se-	8ff#\	-se-
.	.	16aa\Jk	.	.	.	.	.	.
=9	=9	=9	=9	=9	=9	=9	=9	=9
4A\	8.ee\L	8.gg\L	2A\	-re-	4e\	-re-	4gg\	-re-
.	16cc#X\K	16ee\K	.	.	.	.	.	.
4AA/	8.a\	8.cc#X\	.	.	4e\	-re	4gg\	-re
.	16ee\Jk	16gg\Jk	.	.	.	.	.	.
4D\	8.dd\L	8.ff#\L	4D\	re	4d\	no-	4ff#\	no-
.	16ff#\K	16ddd\K	.	.	.	.	.	.
!LO:TX:a:t=P:problem= mixed beam	!	!	!LO:TX:a:t=P:problem= mixed beam	!	!	!	!	!
8A\L	8.cc#X\	8.ee\	8A\L	no-	4c#X\	.	4ee\	.
8AA/J	.	.	8AA/J	.	.	.	.	.
.	16ee\Jk	16ccc#y\Jk	.	.	.	.	.	.
=10	=10	=10	=10	=10	=10	=10	=10	=10
4D/	4ff#\	8.ddd\L	4D\	-biſ	4d\	-biſ	4ff#\	-bis
.	.	16gg\K	.	.	.	.	.	.
4AA/	4g/	8.b\	4r	.	4r	.	4r	.
.	.	16cc#X\Jk	.	.	.	.	.	.
.	.	8qqcc#/	.	.	.	.	.	.
4D/	4f#/	8.dd\L	2r	.	2r	.	2r	.
.	.	16gg\K	.	.	.	.	.	.
4AA/	4g/	8.b\	.	.	.	.	.	.
.	.	16cc#X\Jk	.	.	.	.	.	.
!LO:LB:g=original	!	!	!	!	!	!	!	!
=11	=11	=11	=11	=11	=11	=11	=11	=11
4D\	8.f#/L	8.dd\L	1r	.	1r	.	1r	.
.	16g/K	16b\K	.	.	.	.	.	.
!LO:TX:a:t=P:problem= mixed beam	!	!	!	!	!	!	!	!
8A\L	8.f#/	8.a\	.	.	.	.	.	.
8AA/J	.	.	.	.	.	.	.	.
.	16e/Jk	16g\Jk	.	.	.	.	.	.
.	8qqe/	8qqg/	.	.	.	.	.	.
8.D/L	2d/	2f#/	.	.	.	.	.	.
16AA/Jk	.	.	.	.	.	.	.	.
4D/	.	.	.	.	.	.	.	.
=12	=12	=12	=12	=12	=12	=12	=12	=12
[1D	2f#/	8.a/L	4D\	a-	4A\	a-	4ff#\	a-
.	.	16dd/K	.	.	.	.	.	.
.	.	8.dd/	4D\	-gnuſ	4A\	-gnuſ	4ff#\	-gnuſ
.	.	16a/Jk	.	.	.	.	.	.
!	!	!LO:LB:g=original	!	!	!	!	!	!
.	8.g/L	8.b\L	4D\	a-	4B\	a-	4gg\	a-
.	16b/K	16gg\K	.	.	.	.	.	.
.	8.b/	8.gg\	4D\	-gnuſ	4B\	-gnuſ	4gg\	-gnuſ
.	16g/Jk	16b\Jk	.	.	.	.	.	.
!	!LO:TX:a:t=P:problem=skreślone 2 takty	!	!	!	!	!	!	!
!	!LO:LB:g=original	!	!	!	!	!	!	!
=13	=13	=13	=13	=13	=13	=13	=13	=13
2D\]	8.f#/L	8.a\L	4D\	a-	4A\	a-	4ff#\	a-
.	16a/K	16ff#\K	.	.	.	.	.	.
.	8.a/	8.ff#\	4D\	-gnuſ	4A\	-gnuſ	4ff#\	-gnuſ
.	16f#/Jk	16a\Jk	.	.	.	.	.	.
.	.	.	.	.	8qqA/	.	.	.
!	!	!LO:TX:a:t=P:problem= mixed beam	!	!	!	!	!	!
2AA/	8.e/L	8.g/L	2A\	De-	2G/	De-	2ee\	De-
.	16g/K	16ee\K	.	.	.	.	.	.
.	8.g/	8.ee\	.	.	.	.	.	.
.	16e/Jk	16g/Jk	.	.	.	.	.	.
=14	=14	=14	=14	=14	=14	=14	=14	=14
8.D/L	8.d/L	8.f#/L	8.D\	-i	4F#/	-i	4dd\	-i
16AA/Jk	16A/K	16A/K	16AA/	qui	.	.	.	.
8.D\L	8.d/	8.d/	8.D\L	tol-	4r	.	4r	.
16F#\Jk	16f#/Jk	16f#/Jk	16F#\Jk	.	.	.	.	.
8.A\L	8.a/L	8.a/L	8.A\L	.	2r	.	2r	.
16F#\Jk	16f#/K	16f#/K	16F#\K	.	.	.	.	.
8.D/L	8.d/	8.d/	8.D\	.	.	.	.	.
16AA/Jk	16A/Jk	16A/Jk	16AA\Jk	.	.	.	.	.
!	!	!	!LO:LB:g=original	!	!LO:LB:g=original	!	!	!
=15	=15	=15	=15	=15	=15	=15	=15	=15
8.D/L	8.d/L	8.d/L	8.D\	-liſ	0r	.	0r	.
16AA/Jk	16A/K	16A/K	16AA/	pec-	.	.	.	.
8.D\L	8.d/	8.d/	8.D\	-ca-	.	.	.	.
16F#\Jk	16f#/Jk	16f#/Jk	16F#\	-ta	.	.	.	.
8.A\L	8.a/L	8.a/L	8.A\L	mun-	.	.	.	.
16F#\Jk	16f#/K	16f#/K	16F#\K	.	.	.	.	.
8.D/L	8.d/	8.d/	8.D\	.	.	.	.	.
16AA/Jk	16A/Jk	16A/Jk	16AA\Jk	.	.	.	.	.
=16	=16	=16	=16	=16	=16	=16	=16	=16
8.D/L	8.d/L	8.d/L	8.D\	-di	.	.	.	.
16AA/Jk	16B/K	16B/K	16BB/	qui-	.	.	.	.
8.E\L	8.e/	8.e/	8.E\	-tol-	.	.	.	.
16G\Jk	16g/Jk	16g/Jk	16G\	.	.	.	.	.
8.B\L	8.b/L	8.b/L	8.B\L	.	.	.	.	.
16G\K	16g/K	16g/K	16G\K	.	.	.	.	.
8.E\	8.e/	8.e/	8.E\	.	.	.	.	.
16BB\Jk	16B/Jk	16B/Jk	16BB\Jk	.	.	.	.	.
=17	=17	=17	=17	=17	=17	=17	=17	=17
8.E\L	8.e/L	8.e/L	8.E\	-liſ	1r	.	1r	.
16BB\K	16B/K	16B/K	16BB/	pec-	.	.	.	.
8.E\	8.e/	8.e/	8.E\	-ca-	.	.	.	.
16G\Jk	16g/Jk	16g/Jk	16G\	-ta	.	.	.	.
8.B\L	8.b/L	8.b/L	8.B\L	mun-	.	.	.	.
16G\K	16g/K	16g/K	16G\K	.	.	.	.	.
8.E\	8.e/	8.e/	8.E\	.	.	.	.	.
16BB\Jk	16B/Jk	16B/Jk	16BB\Jk	.	.	.	.	.
!LO:LB:g=original	!LO:LB:g=original	!	!	!	!	!	!	!
=18	=18	=18	=18	=18	=18	=18	=18	=18
2E\	8.e/L	8.e/L	4E\	-di	4r	.	4r	.
.	16g/K	16b/K	.	.	.	.	.	.
.	8.g/	8.b/	8E\	mi-	8G/	mi-	8b\	mi-
.	.	.	8E\	-se-	8G/	-se-	8b\	-se-
.	16g/Jk	16b/Jk	.	.	.	.	.	.
!	!	!LO:LB:g=original	!	!	!	!	!LO:LB:g=original	!
2AA/	8.a/L	8.cc#\L	4AA/	-re-	4A/	-re-	4cc#X\	-re-
.	16a/K	16cc#\K	.	.	.	.	.	.
.	8.a/	8.cc#\	4AA/	-re	4A/	-re	4cc#\	-re
.	16a/Jk	16cc#\Jk	.	.	.	.	.	.
!LO:LB:g=original	!	!	!LO:LB:g=original	!	!	!	!	!
=19	=19	=19	=19	=19	=19	=19	=19	=19
2D\	8.cc/L	8.aa\L	2D/	no-	2F#/	no-	2cc\	no-
.	16a/K	16cc\K	.	.	.	.	.	.
.	8.a/	8.cc\	.	.	.	.	.	.
.	16a/Jk	16cc\Jk	.	.	.	.	.	.
[>2GG/	8g/L	8.b\L	2GG/	-biſ	2G/	-biſ	2b\	-bis
.	8d/J	.	.	.	.	.	.	.
.	.	16b\Jk	.	.	.	.	.	.
.	4d/	4b\	.	.	.	.	.	.
=20	=20	=20	=20	=20	=20	=20	=20	=20
1GG>_	2B/	8.d/L	4G\	A-	4d\	a-	4b\	a-
.	.	16g/K	.	.	.	.	.	.
.	.	8.g/	4G\	-gnuſ	4d\	-gnuſ	4b\	-gnuſ
.	.	16d/Jk	.	.	.	.	.	.
.	8.c/L	8.e/L	4G\	a-	4e\	a-	4cc\	a-
.	16e/K	16cc/K	.	.	.	.	.	.
.	8.e/	8.cc/	4G\	-gnuſ	4e\	-gnuſ	4cc\	-gnuſ
.	16c/Jk	16e/Jk	.	.	.	.	.	.
=21	=21	=21	=21	=21	=21	=21	=21	=21
2GG/]	8.B/L	8.d/L	4G\	a-	4d\	a-	4b\	a-
.	16d/K	16b/K	.	.	.	.	.	.
.	8.d/	8.b/	4G\	-gnuſ	4d\	-gnuſ	4b\	-gnuſ
.	16B/Jk	16d/Jk	.	.	.	.	.	.
.	.	8qqd/	.	.	.	.	.	.
2D\	8.A/L	8.c/L	2D\	De-	2c\	De-	2a\	De-
.	16c/K	16a/K	.	.	.	.	.	.
.	8.c/	8.a/	.	.	.	.	.	.
.	16A/Jk	16c/Jk	.	.	.	.	.	.
=22	=22	=22	=22	=22	=22	=22	=22	=22
8.GG/L	8.G/L	8.B/L	8.GG/	-i	8.B\	-i	8.g\	-i
16D/Jk	16d/K	16d/K	16D\	qui	16D/	qui	16d/	qui
8.G\L	8.g/	8.g/	8.G\L	tol-	8.G\L	tol-	(8g\L	tol-
.	.	.	.	.	.	.	8b\J)	.
16B\Jk	16b/Jk	16b/Jk	16B\Jk	.	16B\Jk	.	.	.
8.d\L	8.dd\L	8.dd\L	8.d\L	.	8.d\L	.	8.dd\L	.
16B\K	16b\Jk	16b\Jk	16B\K	.	16B\K	.	16b\K	.
8.G\	8.g/L	8.g/L	8.G\	.	8.G\	.	8.g\	.
16D\Jk	16d/Jk	16e/Jk	16D\Jk	.	16D\Jk	.	16d\Jk	.
!	!	!	!	!	!LO:LB:g=original	!	!	!
=23	=23	=23	=23	=23	=23	=23	=23	=23
8.G\L	8.g/L	8.g/L	8.G\	-liſ	8.G/	-liſ	8.g\	-lis
16E\K	16e/K	16d/K	16D\	pec-	16D/	pec-	16d/	pec-
8.G\	8.g/	8.g/	8.G\	-ca-	8G/	-ca-	8g\	-ca-
!	!	!	!	!	!LO:TX:a:t=P:problem= szesnastka zamiast ósemki albo brak kropki przy poprzedniej nucie	!	!	!
!	!	!	!	!	!LO:N:vis=16	!	!	!
.	.	.	.	.	8B/	-ta	8b\	-ta
16B\Jk	16b/Jk	16b/Jk	16B\	-ta	.	.	.	.
8.d\L	8.dd\L	8.dd\L	8.d\L	mun-	8.d\L	mun-	8.dd\L	mun-
16B\K	16b\Jk	16b\Jk	16B\K	.	16B\K	.	16b\K	.
8.G\	8.g/L	8.g/L	8.G\	.	8.G\	.	8.g\	.
16D\Jk	16d/Jk	16d/Jk	16D\Jk	.	16D\Jk	.	16d\Jk	.
!	!LO:LB:g=original	!	!LO:LB:g=original	!	!	!	!	!
=24	=24	=24	=24	=24	=24	=24	=24	=24
4G\	8.g/L	8.g\L	4G\	-di	4G\	-di	4g\	-di
.	16b/K	16dd\K	.	.	.	.	.	.
4G\	8.b/	8.dd\	8G\	mi-	8B\	mi-	8dd\	mi-
.	.	.	8G\	-se-	8B\	-se-	8dd\	-se-
.	16b/Jk	16dd\Jk	.	.	.	.	.	.
!	!LO:TX:a:t=P:problem= mixed beam	!	!	!	!LO:TX:a:t=P:problem= mixed beam	!	!LO:LB:g=original	!
2G\	8.dd\L	8.ff#\L	2G\	-re-	8.d\L	-re-	8.ff#X\L	-re-
.	16f#/Jk	16dd\K	.	.	16Fn/K	.	16dd\K	.
.	8.e/L	8.cc\	.	.	8.E/	.	8.cc\	.
.	16d/Jk	16b\Jk	.	.	16D/Jk	.	16b\Jk	.
!	!	!LO:TX:a:t=P:problem= dopisany taktna końcu głosu	!	!	!	!	!	!
!	!	!LO:LB:g=original	!	!	!	!	!	!
=25	=25	=25	=25	=25	=25	=25	=25	=25
4C/	8.e/L	8.cc\L	4C/	-re	4E/	-re	4cc\	-re
.	16cc#X/K	16ee\K	.	.	.	.	.	.
4A\	8.cc#/	8.ee\	8A\	mi-	8c#X\	mi-	8ee\	mi-
.	.	.	8A\	-se-	8c#\	-se-	8ee\	-se-
.	16cc#/Jk	16ee\Jk	.	.	.	.	.	.
!	!LO:TX:a:t=P:problem= mixed beam	!	!	!	!LO:TX:a:t=P:problem= mixed beam	!	!	!
2A\	8.ee\L	8.gg\L	2A\	-re-	8.e\L	-re-	8.gg\L	-re-
.	16g/Jk	16ee\K	.	.	16G/K	.	16ee\K	.
.	8.f#X/L	8.dd\	.	.	8.F#/	.	8.dd\	.
.	16e/Jk	16cc#X\Jk	.	.	16E/Jk	.	16cc#X\Jk	.
!	!	!LO:LB:g=original	!	!	!	!	!	!
=26	=26	=26	=26	=26	=26	=26	=26	=26
4D\	8.f#/L	8.dd\L	4D\	-re	4F#/	-re	4dd\	-re
.	16cc#3/Jk	16aa\K	.	.	.	.	.	.
4D\	8.a/L	8.cc#X\	8D\	mi-	8A/	mi-	8cc#X\	mi-
.	.	.	8D\	-se-	8A/	-se-	8cc#\	-se-
.	16a/Jk	16cc#\Jk	.	.	.	.	.	.
4G\	8.g/L	8.b\L	8G\	-re-	8G/	-re-	8b\	-re-
.	.	.	8G\	-re	8G/	-re	8b\	-re
.	16b/K	16gg\Jk	.	.	.	.	.	.
!	!	!LO:TX:a:t=P:problem= mixed beam	!	!	!	!	!	!
8.d\L	8.d/	8.d/L	8d\L	no-	4F#/	no-	4a\	no-
.	.	.	8D\J	.	.	.	.	.
16D\Jk	16a/Jk	16ff#\Jk	.	.	.	.	.	.
!	!	!	!	!	!LO:LB:g=original	!	!	!
=27	=27	=27	=27	=27	=27	=27	=27	=27
(2GG/	8.b/L	8.gg\L	4G\	-biſ	4G/	-biſ	4b\	-biſ
.	16e/Jk	16cc\Jk	.	.	.	.	.	.
.	8.c/L	8e/L	4r	.	4r	.	4r	.
.	.	8f#/J	.	.	.	.	.	.
.	16A/Jk	.	.	.	.	.	.	.
2GG/)	8.B/L	8.g/L	2r	.	2r	.	2r	.
.	16e/Jk	16cc/Jk	.	.	.	.	.	.
.	8.c/L	(8e/L	.	.	.	.	.	.
.	.	8f#/J)	.	.	.	.	.	.
.	16A/Jk	.	.	.	.	.	.	.
!	!	!	!	!	!	!	!LO:TX:a:t=P:problem=łuk nad kreską taktową	!
!	!	!	!	!	!	!	!LO:TX:b:t=Dona nobis ut kirie	!
=28	=28	=28	=28	=28	=28	=28	=28	=28
.	8qqc;/	8qqf#/	.	.	.	.	.	.
!	!LO:TX:b:t=Donanobis ut Kirie Allo	!	!	!	!	!	!LO:TX:a:t=P:problem=nadliczbowy takt	!
2GG/	2B;/	2g/	1r	.	1r	.	1r	.
2r	2r	2r	.	.	.	.	.	.
!LO:TX:a:t=P:problem=łuk nad i pod kreską taktową	!	!LO:TX:a:t=P:problem=łuk nad i pod kreską taktową	!LO:TX:a:t=P:problem=łuk nad kreską taktową	!	!LO:TX:a:t=P:problem=łuk nad kreską taktową	!	!	!
!LO:TX:b:t=Donanobis ut Kirie alegro	!	!LO:TX:b:t=Dona nobis ud Kirię	!LO:TX:b:t=Dona nobis ut kirie allo	!	!LO:TX:b:t=Dona nobis ut Kirie Allo	!	!	!
==;;	==	==;;	==;	==	==;	==	==;	==
*-	*-	*-	*-	*-	*-	*-	*-	*-
!!!system-decoration: [(g1)][(g2)]g3
!!!RDF**kern: >= above
!!!RDF**kern: <= below
!!!ENC: Anna Matuszewska
!!!END: 2020-10-12
!!!ENC: Tomasz Grochalski
!!!END: 2020-05-16
